;START_OF_HEADER
;HEADER_VERSION:0.1
;FLAVOR:Griffin
;GENERATOR.NAME:Cura_SteamEngine
;GENERATOR.VERSION:2.7.0
;GENERATOR.BUILD_DATE:2017-08-30
;TARGET_MACHINE.NAME:Ultimaker 3 Extended
;EXTRUDER_TRAIN.0.INITIAL_TEMPERATURE:210
;EXTRUDER_TRAIN.0.MATERIAL.VOLUME_USED:2788
;EXTRUDER_TRAIN.0.MATERIAL.GUID:506c9f0d-e3aa-4bd4-b2d2-23e2425b1aa9
;EXTRUDER_TRAIN.0.NOZZLE.DIAMETER:0.4
;EXTRUDER_TRAIN.0.NOZZLE.NAME:AA 0.4
;BUILD_PLATE.INITIAL_TEMPERATURE:60
;PRINT.TIME:1461
;PRINT.SIZE.MIN.X:9
;PRINT.SIZE.MIN.Y:6
;PRINT.SIZE.MIN.Z:0.27
;PRINT.SIZE.MAX.X:170.587
;PRINT.SIZE.MAX.Y:119.325
;PRINT.SIZE.MAX.Z:4.07
;END_OF_HEADER
;Generated with Cura_SteamEngine 2.7.0

T0
G92 E0

M109 S210
G0 F15000 X9 Y6 Z2
G280
G1 F1500 E-6.5
;LAYER_COUNT:20
;LAYER:0
M107
M204 S625
M205 X6 Y6
G0 F4285.7 X65.404 Y96.853 Z0.27
M204 S500
M205 X5 Y5
;TYPE:SKIRT
G1 F1500 E0
G1 F1200 X66.037 Y96.472 E0.01094
G1 X66.707 Y96.161 E0.02189
G1 X67.407 Y95.925 E0.03283
G1 X68.128 Y95.766 E0.04377
G1 X68.863 Y95.685 E0.05472
G1 X69.237 Y95.675 E0.06026
G1 X163.762 Y95.675 E1.46049
G1 X164.5 Y95.715 E1.47144
G1 X165.228 Y95.834 E1.48237
G1 X165.94 Y96.032 E1.49331
G1 X166.626 Y96.305 E1.50425
G1 X167.279 Y96.651 E1.5152
G1 X167.891 Y97.065 E1.52614
G1 X168.454 Y97.543 E1.53708
G1 X168.962 Y98.079 E1.54802
G1 X169.409 Y98.667 E1.55896
G1 X169.79 Y99.3 E1.56991
G1 X170.101 Y99.97 E1.58085
G1 X170.337 Y100.67 E1.59179
G1 X170.496 Y101.391 E1.60273
G1 X170.577 Y102.126 E1.61368
G1 X170.587 Y102.5 E1.61923
G1 X170.587 Y112.5 E1.76736
G1 X170.547 Y113.238 E1.77831
G1 X170.428 Y113.966 E1.78923
G1 X170.23 Y114.678 E1.80018
G1 X169.957 Y115.364 E1.81112
G1 X169.611 Y116.017 E1.82207
G1 X169.197 Y116.629 E1.83301
G1 X168.719 Y117.192 E1.84395
G1 X168.183 Y117.7 E1.85489
G1 X167.595 Y118.147 E1.86583
G1 X166.962 Y118.528 E1.87678
G1 X166.292 Y118.839 E1.88772
G1 X165.592 Y119.075 E1.89866
G1 X164.871 Y119.234 E1.9096
G1 X164.136 Y119.315 E1.92055
G1 X163.762 Y119.325 E1.92609
G1 X69.237 Y119.325 E3.32632
G1 X68.499 Y119.285 E3.33727
G1 X67.771 Y119.166 E3.3482
G1 X67.059 Y118.968 E3.35915
G1 X66.373 Y118.695 E3.37008
G1 X65.72 Y118.349 E3.38103
G1 X65.108 Y117.935 E3.39197
G1 X64.545 Y117.457 E3.40292
G1 X64.037 Y116.921 E3.41385
G1 X63.59 Y116.333 E3.4248
G1 X63.209 Y115.7 E3.43574
G1 X62.898 Y115.03 E3.44668
G1 X62.662 Y114.33 E3.45762
G1 X62.503 Y113.609 E3.46856
G1 X62.422 Y112.874 E3.47952
G1 X62.412 Y112.5 E3.48506
G1 X62.412 Y102.5 E3.63319
G1 X62.452 Y101.762 E3.64414
G1 X62.571 Y101.034 E3.65507
G1 X62.769 Y100.322 E3.66601
G1 X63.042 Y99.636 E3.67695
G1 X63.388 Y98.983 E3.6879
G1 X63.802 Y98.371 E3.69884
G1 X64.28 Y97.808 E3.70978
G1 X64.816 Y97.3 E3.72072
G1 X65.404 Y96.853 E3.73166
M204 S625
M205 X6 Y6
G0 F4285.7 X65.741 Y97.05
M204 S500
M205 X5 Y5
G1 F1200 X66.368 Y96.696 E3.74233
G1 X67.029 Y96.413 E3.75298
G1 X67.718 Y96.206 E3.76364
G1 X68.426 Y96.076 E3.7743
G1 X69.237 Y96.025 E3.78634
G1 X163.762 Y96.025 E5.18657
G1 X164.48 Y96.065 E5.19722
G1 X165.19 Y96.184 E5.20788
G1 X165.882 Y96.382 E5.21855
G1 X166.547 Y96.655 E5.22919
G1 X167.179 Y97 E5.23986
G1 X167.768 Y97.413 E5.25052
G1 X168.307 Y97.889 E5.26117
G1 X168.791 Y98.421 E5.27182
G1 X169.212 Y99.004 E5.28248
G1 X169.566 Y99.631 E5.29314
G1 X169.849 Y100.292 E5.30379
G1 X170.056 Y100.981 E5.31445
G1 X170.186 Y101.689 E5.32511
G1 X170.237 Y102.5 E5.33715
G1 X170.237 Y112.5 E5.48528
G1 X170.197 Y113.218 E5.49594
G1 X170.078 Y113.928 E5.5066
G1 X169.88 Y114.62 E5.51726
G1 X169.607 Y115.285 E5.52791
G1 X169.262 Y115.917 E5.53858
G1 X168.849 Y116.506 E5.54923
G1 X168.373 Y117.045 E5.55989
G1 X167.841 Y117.529 E5.57054
G1 X167.258 Y117.95 E5.58119
G1 X166.631 Y118.304 E5.59186
G1 X165.97 Y118.587 E5.60251
G1 X165.281 Y118.794 E5.61317
G1 X164.573 Y118.924 E5.62383
G1 X163.762 Y118.975 E5.63587
G1 X69.237 Y118.975 E7.0361
G1 X68.519 Y118.935 E7.04675
G1 X67.809 Y118.816 E7.05741
G1 X67.117 Y118.618 E7.06807
G1 X66.452 Y118.345 E7.07872
G1 X65.82 Y118 E7.08939
G1 X65.231 Y117.587 E7.10005
G1 X64.692 Y117.111 E7.1107
G1 X64.208 Y116.579 E7.12135
G1 X63.787 Y115.996 E7.132
G1 X63.433 Y115.369 E7.14267
G1 X63.15 Y114.708 E7.15332
G1 X62.943 Y114.019 E7.16398
G1 X62.813 Y113.311 E7.17464
G1 X62.762 Y112.5 E7.18668
G1 X62.762 Y102.5 E7.33481
G1 X62.802 Y101.782 E7.34546
G1 X62.921 Y101.072 E7.35613
G1 X63.119 Y100.38 E7.36679
G1 X63.392 Y99.715 E7.37744
G1 X63.737 Y99.083 E7.38811
G1 X64.15 Y98.494 E7.39876
G1 X64.626 Y97.955 E7.40941
G1 X65.158 Y97.471 E7.42007
G1 X65.741 Y97.05 E7.43072
M204 S625
M205 X6 Y6
G0 F4285.7 X66.077 Y97.253
M204 S500
M205 X5 Y5
G1 F1200 X66.696 Y96.927 E7.44108
G1 X67.348 Y96.673 E7.45145
G1 X68.025 Y96.496 E7.46181
G1 X68.718 Y96.397 E7.47218
G1 X69.237 Y96.375 E7.47988
G1 X163.762 Y96.375 E8.88011
G1 X164.461 Y96.415 E8.89048
G1 X165.15 Y96.534 E8.90084
G1 X165.821 Y96.732 E8.9112
G1 X166.466 Y97.004 E8.92157
G1 X167.075 Y97.348 E8.93193
G1 X167.641 Y97.76 E8.9423
G1 X168.156 Y98.233 E8.95266
G1 X168.614 Y98.762 E8.96302
G1 X169.009 Y99.34 E8.9734
G1 X169.335 Y99.959 E8.98376
G1 X169.589 Y100.611 E8.99412
G1 X169.766 Y101.288 E9.00449
G1 X169.865 Y101.981 E9.01486
G1 X169.887 Y102.5 E9.02255
G1 X169.887 Y112.5 E9.17069
G1 X169.847 Y113.199 E9.18106
G1 X169.728 Y113.888 E9.19142
G1 X169.53 Y114.559 E9.20178
G1 X169.258 Y115.204 E9.21215
G1 X168.914 Y115.813 E9.22251
G1 X168.502 Y116.379 E9.23288
G1 X168.029 Y116.894 E9.24324
G1 X167.5 Y117.352 E9.2536
G1 X166.922 Y117.747 E9.26397
G1 X166.303 Y118.073 E9.27434
G1 X165.651 Y118.327 E9.2847
G1 X164.974 Y118.504 E9.29507
G1 X164.281 Y118.603 E9.30544
G1 X163.762 Y118.625 E9.31313
G1 X69.237 Y118.625 E10.71336
G1 X68.538 Y118.585 E10.72373
G1 X67.849 Y118.466 E10.73409
G1 X67.178 Y118.268 E10.74445
G1 X66.533 Y117.996 E10.75482
G1 X65.924 Y117.652 E10.76519
G1 X65.358 Y117.24 E10.77556
G1 X64.843 Y116.767 E10.78591
G1 X64.385 Y116.238 E10.79628
G1 X63.99 Y115.66 E10.80665
G1 X63.664 Y115.041 E10.81701
G1 X63.41 Y114.389 E10.82738
G1 X63.233 Y113.712 E10.83774
G1 X63.134 Y113.019 E10.84811
G1 X63.112 Y112.5 E10.85581
G1 X63.112 Y102.5 E11.00394
G1 X63.152 Y101.801 E11.01431
G1 X63.271 Y101.112 E11.02467
G1 X63.469 Y100.441 E11.03503
G1 X63.741 Y99.796 E11.0454
G1 X64.085 Y99.187 E11.05576
G1 X64.497 Y98.621 E11.06613
G1 X64.97 Y98.106 E11.07649
G1 X65.499 Y97.648 E11.08686
G1 X66.077 Y97.253 E11.09723
M204 S625
M205 X6 Y6
G0 F4285.7 X66.411 Y97.464
M204 S500
M205 X5 Y5
G1 F1200 X67.022 Y97.167 E11.10729
G1 X67.664 Y96.943 E11.11736
G1 X68.327 Y96.797 E11.12742
G1 X69.237 Y96.725 E11.14094
G1 X163.762 Y96.725 E12.54117
G1 X164.44 Y96.765 E12.55123
G1 X165.109 Y96.884 E12.5613
G1 X165.759 Y97.081 E12.57136
G1 X166.382 Y97.353 E12.58143
G1 X166.968 Y97.697 E12.5915
G1 X167.51 Y98.107 E12.60156
G1 X168 Y98.577 E12.61162
G1 X168.431 Y99.102 E12.62168
G1 X168.798 Y99.674 E12.63175
G1 X169.095 Y100.285 E12.64181
G1 X169.319 Y100.927 E12.65189
G1 X169.465 Y101.59 E12.66194
G1 X169.537 Y102.5 E12.67546
G1 X169.537 Y112.5 E12.8236
G1 X169.497 Y113.178 E12.83366
G1 X169.378 Y113.847 E12.84372
G1 X169.181 Y114.497 E12.85379
G1 X168.909 Y115.12 E12.86386
G1 X168.565 Y115.706 E12.87392
G1 X168.155 Y116.248 E12.88399
G1 X167.685 Y116.738 E12.89405
G1 X167.16 Y117.169 E12.90411
G1 X166.588 Y117.536 E12.91418
G1 X165.977 Y117.833 E12.92424
G1 X165.335 Y118.057 E12.93431
G1 X164.672 Y118.203 E12.94437
G1 X163.762 Y118.275 E12.95789
G1 X69.237 Y118.275 E14.35812
G1 X68.559 Y118.235 E14.36818
G1 X67.89 Y118.116 E14.37825
G1 X67.24 Y117.919 E14.38831
G1 X66.617 Y117.647 E14.39838
G1 X66.031 Y117.303 E14.40844
G1 X65.489 Y116.893 E14.41851
G1 X64.999 Y116.423 E14.42857
G1 X64.568 Y115.898 E14.43863
G1 X64.201 Y115.326 E14.4487
G1 X63.904 Y114.715 E14.45876
G1 X63.68 Y114.073 E14.46883
G1 X63.534 Y113.41 E14.47889
G1 X63.462 Y112.5 E14.49241
G1 X63.462 Y102.5 E14.64054
G1 X63.502 Y101.822 E14.65061
G1 X63.621 Y101.153 E14.66067
G1 X63.818 Y100.503 E14.67073
G1 X64.09 Y99.88 E14.6808
G1 X64.434 Y99.294 E14.69087
G1 X64.844 Y98.752 E14.70093
G1 X65.314 Y98.262 E14.71099
G1 X65.839 Y97.831 E14.72105
G1 X66.411 Y97.464 E14.73112
M204 S625
M205 X6 Y6
G0 F4285.7 X66.743 Y97.682
M204 S500
M205 X5 Y5
G1 F1200 X67.345 Y97.416 E14.74087
G1 X67.975 Y97.224 E14.75063
G1 X68.623 Y97.11 E14.76037
G1 X69.237 Y97.075 E14.76948
G1 X163.762 Y97.075 E16.16971
G1 X164.419 Y97.115 E16.17946
G1 X165.067 Y97.234 E16.18922
G1 X165.695 Y97.431 E16.19897
G1 X166.295 Y97.703 E16.20873
G1 X166.858 Y98.045 E16.21849
G1 X167.375 Y98.453 E16.22824
G1 X167.838 Y98.92 E16.23799
G1 X168.242 Y99.441 E16.24775
G1 X168.58 Y100.006 E16.25751
G1 X168.846 Y100.608 E16.26725
G1 X169.038 Y101.238 E16.27701
G1 X169.152 Y101.886 E16.28676
G1 X169.187 Y102.5 E16.29587
G1 X169.187 Y112.5 E16.444
G1 X169.147 Y113.157 E16.45375
G1 X169.028 Y113.805 E16.46351
G1 X168.831 Y114.433 E16.47326
G1 X168.559 Y115.033 E16.48302
G1 X168.217 Y115.596 E16.49278
G1 X167.809 Y116.113 E16.50253
G1 X167.342 Y116.576 E16.51227
G1 X166.821 Y116.98 E16.52204
G1 X166.256 Y117.318 E16.53179
G1 X165.654 Y117.584 E16.54154
G1 X165.024 Y117.776 E16.5513
G1 X164.376 Y117.89 E16.56105
G1 X163.762 Y117.925 E16.57016
G1 X69.237 Y117.925 E17.97038
G1 X68.58 Y117.885 E17.98013
G1 X67.932 Y117.766 E17.98989
G1 X67.304 Y117.569 E17.99964
G1 X66.704 Y117.297 E18.0094
G1 X66.141 Y116.955 E18.01916
G1 X65.624 Y116.547 E18.02892
G1 X65.161 Y116.08 E18.03866
G1 X64.757 Y115.559 E18.04842
G1 X64.419 Y114.994 E18.05818
G1 X64.153 Y114.392 E18.06793
G1 X63.961 Y113.762 E18.07768
G1 X63.847 Y113.114 E18.08743
G1 X63.812 Y112.5 E18.09654
G1 X63.812 Y102.5 E18.24467
G1 X63.852 Y101.843 E18.25442
G1 X63.971 Y101.195 E18.26418
G1 X64.168 Y100.567 E18.27393
G1 X64.44 Y99.967 E18.28369
G1 X64.782 Y99.404 E18.29345
G1 X65.19 Y98.887 E18.3032
G1 X65.657 Y98.424 E18.31295
G1 X66.178 Y98.02 E18.32271
G1 X66.743 Y97.682 E18.33247
M204 S625
M205 X6 Y6
G0 F4285.7 X67.072 Y97.91
M204 S500
M205 X5 Y5
G1 F1200 X67.664 Y97.675 E18.3419
G1 X68.281 Y97.516 E18.35134
G1 X68.913 Y97.435 E18.36078
G1 X69.237 Y97.425 E18.36558
G1 X163.762 Y97.425 E19.76581
G1 X164.398 Y97.465 E19.77525
G1 X165.023 Y97.584 E19.78467
G1 X165.629 Y97.781 E19.79411
G1 X166.205 Y98.052 E19.80354
G1 X166.743 Y98.393 E19.81298
G1 X167.234 Y98.799 E19.82241
G1 X167.67 Y99.263 E19.83185
G1 X168.045 Y99.778 E19.84128
G1 X168.352 Y100.335 E19.8507
G1 X168.587 Y100.927 E19.86014
G1 X168.746 Y101.544 E19.86958
G1 X168.827 Y102.176 E19.87902
G1 X168.837 Y102.5 E19.88382
G1 X168.837 Y112.5 E20.03195
G1 X168.797 Y113.136 E20.04139
G1 X168.678 Y113.761 E20.05082
G1 X168.481 Y114.367 E20.06026
G1 X168.21 Y114.943 E20.06968
G1 X167.869 Y115.481 E20.07912
G1 X167.463 Y115.972 E20.08856
G1 X166.999 Y116.408 E20.09799
G1 X166.484 Y116.783 E20.10743
G1 X165.927 Y117.09 E20.11685
G1 X165.335 Y117.325 E20.12628
G1 X164.718 Y117.484 E20.13572
G1 X164.086 Y117.565 E20.14516
G1 X163.762 Y117.575 E20.14996
G1 X69.237 Y117.575 E21.55019
G1 X68.601 Y117.535 E21.55963
G1 X67.976 Y117.416 E21.56906
G1 X67.37 Y117.219 E21.57849
G1 X66.794 Y116.948 E21.58792
G1 X66.256 Y116.607 E21.59736
G1 X65.765 Y116.201 E21.6068
G1 X65.329 Y115.737 E21.61623
G1 X64.954 Y115.222 E21.62567
G1 X64.647 Y114.665 E21.63509
G1 X64.412 Y114.073 E21.64452
G1 X64.253 Y113.456 E21.65396
G1 X64.172 Y112.824 E21.6634
G1 X64.162 Y112.5 E21.6682
G1 X64.162 Y102.5 E21.81633
G1 X64.202 Y101.864 E21.82577
G1 X64.321 Y101.239 E21.8352
G1 X64.518 Y100.633 E21.84464
G1 X64.789 Y100.057 E21.85407
G1 X65.13 Y99.519 E21.8635
G1 X65.536 Y99.028 E21.87294
G1 X66 Y98.592 E21.88237
G1 X66.515 Y98.217 E21.89181
G1 X67.072 Y97.91 E21.90123
M204 S625
M205 X6 Y6
G0 F4285.7 X67.399 Y98.147
M204 S500
M205 X5 Y5
G1 F1200 X67.98 Y97.945 E21.91034
G1 X68.581 Y97.821 E21.91943
G1 X69.237 Y97.775 E21.92918
G1 X163.762 Y97.775 E23.3294
G1 X164.375 Y97.815 E23.3385
G1 X164.978 Y97.934 E23.34761
G1 X165.56 Y98.131 E23.35671
G1 X166.112 Y98.401 E23.36581
G1 X166.624 Y98.741 E23.37492
G1 X167.088 Y99.144 E23.38402
G1 X167.495 Y99.604 E23.39312
G1 X167.84 Y100.113 E23.40223
G1 X168.115 Y100.662 E23.41132
G1 X168.317 Y101.243 E23.42044
G1 X168.441 Y101.844 E23.42953
G1 X168.487 Y102.5 E23.43927
G1 X168.487 Y112.5 E23.5874
G1 X168.447 Y113.113 E23.5965
G1 X168.328 Y113.716 E23.60561
G1 X168.131 Y114.298 E23.61471
G1 X167.861 Y114.85 E23.62381
G1 X167.521 Y115.362 E23.63291
G1 X167.118 Y115.826 E23.64202
G1 X166.658 Y116.233 E23.65112
G1 X166.149 Y116.578 E23.66023
G1 X165.6 Y116.853 E23.66932
G1 X165.019 Y117.055 E23.67843
G1 X164.418 Y117.179 E23.68752
G1 X163.762 Y117.225 E23.69726
G1 X69.237 Y117.225 E25.09749
G1 X68.624 Y117.185 E25.10659
G1 X68.021 Y117.066 E25.1157
G1 X67.439 Y116.869 E25.1248
G1 X66.887 Y116.599 E25.1339
G1 X66.375 Y116.259 E25.14301
G1 X65.911 Y115.856 E25.15211
G1 X65.504 Y115.396 E25.16121
G1 X65.159 Y114.887 E25.17032
G1 X64.884 Y114.338 E25.17941
G1 X64.682 Y113.757 E25.18853
G1 X64.558 Y113.156 E25.19762
G1 X64.512 Y112.5 E25.20736
G1 X64.512 Y102.5 E25.35549
G1 X64.552 Y101.887 E25.36459
G1 X64.671 Y101.284 E25.37369
G1 X64.868 Y100.702 E25.3828
G1 X65.138 Y100.15 E25.3919
G1 X65.478 Y99.638 E25.401
G1 X65.881 Y99.174 E25.41011
G1 X66.341 Y98.767 E25.41921
G1 X66.85 Y98.422 E25.42831
G1 X67.399 Y98.147 E25.43741
M204 S625
M205 X6 Y6
G0 F4285.7 X67.722 Y98.396
M204 S500
M205 X5 Y5
G1 F1200 X68.29 Y98.229 E25.44618
G1 X68.874 Y98.14 E25.45493
G1 X69.237 Y98.125 E25.46031
G1 X163.762 Y98.125 E26.86054
G1 X164.352 Y98.165 E26.8693
G1 X164.931 Y98.284 E26.87806
G1 X165.489 Y98.48 E26.88682
G1 X166.015 Y98.75 E26.89558
G1 X166.5 Y99.088 E26.90433
G1 X166.935 Y99.488 E26.91309
G1 X167.312 Y99.944 E26.92185
G1 X167.625 Y100.446 E26.93062
G1 X167.866 Y100.985 E26.93936
G1 X168.033 Y101.553 E26.94813
G1 X168.122 Y102.137 E26.95688
G1 X168.137 Y102.5 E26.96226
G1 X168.137 Y112.5 E27.1104
G1 X168.097 Y113.09 E27.11916
G1 X167.978 Y113.669 E27.12791
G1 X167.782 Y114.227 E27.13667
G1 X167.512 Y114.753 E27.14543
G1 X167.174 Y115.238 E27.15419
G1 X166.774 Y115.673 E27.16294
G1 X166.318 Y116.05 E27.17171
G1 X165.816 Y116.363 E27.18047
G1 X165.277 Y116.604 E27.18922
G1 X164.709 Y116.771 E27.19799
G1 X164.125 Y116.86 E27.20674
G1 X163.762 Y116.875 E27.21212
G1 X69.237 Y116.875 E28.61235
G1 X68.647 Y116.835 E28.62111
G1 X68.068 Y116.716 E28.62987
G1 X67.51 Y116.52 E28.63863
G1 X66.984 Y116.25 E28.64738
G1 X66.499 Y115.912 E28.65614
G1 X66.064 Y115.512 E28.6649
G1 X65.687 Y115.056 E28.67366
G1 X65.374 Y114.554 E28.68242
G1 X65.133 Y114.015 E28.69117
G1 X64.966 Y113.447 E28.69994
G1 X64.877 Y112.863 E28.70869
G1 X64.862 Y112.5 E28.71407
G1 X64.862 Y102.5 E28.86221
G1 X64.902 Y101.91 E28.87097
G1 X65.021 Y101.331 E28.87972
G1 X65.217 Y100.773 E28.88848
G1 X65.487 Y100.247 E28.89724
G1 X65.825 Y99.762 E28.906
G1 X66.225 Y99.327 E28.91475
G1 X66.681 Y98.95 E28.92352
G1 X67.183 Y98.637 E28.93228
G1 X67.722 Y98.396 E28.94103
M204 S625
M205 X6 Y6
G0 F4285.7 X68.041 Y98.657
M204 S500
M205 X5 Y5
G1 F1200 X68.593 Y98.527 E28.94943
G1 X69.237 Y98.475 E28.959
G1 X163.762 Y98.475 E30.35923
G1 X164.328 Y98.515 E30.36763
G1 X164.882 Y98.634 E30.37602
G1 X165.414 Y98.83 E30.38442
G1 X165.914 Y99.098 E30.39283
G1 X166.37 Y99.435 E30.40123
G1 X166.775 Y99.832 E30.40963
G1 X167.121 Y100.282 E30.41804
G1 X167.399 Y100.776 E30.42643
G1 X167.605 Y101.304 E30.43483
G1 X167.735 Y101.856 E30.44323
G1 X167.787 Y102.5 E30.4528
G1 X167.787 Y112.5 E30.60093
G1 X167.747 Y113.066 E30.60934
G1 X167.628 Y113.62 E30.61773
G1 X167.432 Y114.152 E30.62613
G1 X167.164 Y114.652 E30.63453
G1 X166.827 Y115.108 E30.64293
G1 X166.43 Y115.513 E30.65133
G1 X165.98 Y115.859 E30.65974
G1 X165.486 Y116.137 E30.66814
G1 X164.958 Y116.343 E30.67654
G1 X164.406 Y116.473 E30.68494
G1 X163.762 Y116.525 E30.69451
G1 X69.237 Y116.525 E32.09474
G1 X68.671 Y116.485 E32.10314
G1 X68.117 Y116.366 E32.11153
G1 X67.585 Y116.17 E32.11993
G1 X67.085 Y115.902 E32.12834
G1 X66.629 Y115.565 E32.13674
G1 X66.224 Y115.168 E32.14514
G1 X65.878 Y114.718 E32.15355
G1 X65.6 Y114.224 E32.16194
G1 X65.394 Y113.696 E32.17034
G1 X65.264 Y113.144 E32.17874
G1 X65.212 Y112.5 E32.18831
G1 X65.212 Y102.5 E32.33644
